Sources/FrostedUI/Resources/Icons.xcassets/gif20.imageset/gif-20.svg

<svg width="20" height="20" viewBox="0 0 20 20" fill="none" xmlns="http://www.w3.org/2000/svg" data-fui-icon="true">
  <path
    d="M9.99988 0C11.5819 0 12.8128 -0.000596686 13.7996 0.078124C14.7947 0.15753 15.6067 0.321456 16.3396 0.684562C17.6302 1.32412 18.6756 2.36955 19.3152 3.66011C19.6783 4.39303 19.8422 5.20508 19.9216 6.20012C20.0004 7.18688 19.9998 8.4179 19.9998 9.99988C19.9998 11.5818 20.0003 12.8129 19.9216 13.7996C19.8422 14.7947 19.6783 15.6067 19.3152 16.3396C18.6756 17.6303 17.6303 18.6756 16.3396 19.3152C15.6067 19.6784 14.7948 19.8422 13.7996 19.9216C12.8128 20.0004 11.5819 19.9998 9.99988 19.9998C8.41784 19.9998 7.18691 20.0004 6.20012 19.9216C5.20503 19.8422 4.39306 19.6784 3.66011 19.3152C2.36953 18.6756 1.32413 17.6303 0.684562 16.3396C0.321473 15.6067 0.157528 14.7947 0.078124 13.7996C-0.000587736 12.8129 0 11.5818 0 9.99988C-6.23739e-08 8.4179 -0.000603917 7.18688 0.078124 6.20012C0.157544 5.20508 0.321417 4.39304 0.684562 3.66011C1.32417 2.36951 2.36949 1.32414 3.66011 0.684562C4.39307 0.321401 5.20502 0.15754 6.20012 0.078124C7.18691 -0.000605942 8.41784 -3.12622e-08 9.99988 0ZM9.99988 1.49998C8.3937 1.49998 7.23256 1.50036 6.31926 1.57322C5.41465 1.64543 4.81687 1.78514 4.32612 2.0283C3.3295 2.52215 2.52218 3.32952 2.0283 4.32612C1.78515 4.81685 1.64543 5.41473 1.57322 6.31926C1.50036 7.23254 1.49998 8.39377 1.49998 9.99988C1.49998 11.606 1.50037 12.7672 1.57322 13.6805C1.64541 14.585 1.78521 15.1829 2.0283 15.6736C2.52214 16.6702 3.32954 17.4776 4.32612 17.9715C4.81687 18.2146 5.41468 18.3543 6.31926 18.4265C7.23256 18.4994 8.3937 18.4998 9.99988 18.4998C11.6061 18.4998 12.7672 18.4994 13.6805 18.4265C14.5852 18.3543 15.1829 18.2146 15.6736 17.9715C16.6703 17.4776 17.4776 16.6703 17.9715 15.6736C18.2146 15.1829 18.3543 14.5851 18.4265 13.6805C18.4994 12.7672 18.4998 11.606 18.4998 9.99988C18.4998 8.39377 18.4994 7.23254 18.4265 6.31926C18.3543 5.41474 18.2146 4.81685 17.9715 4.32612C17.4776 3.32957 16.6702 2.52214 15.6736 2.0283C15.1829 1.78519 14.585 1.64542 13.6805 1.57322C12.7672 1.50037 11.606 1.49998 9.99988 1.49998ZM5.9384 6.49992C6.87112 6.49999 7.52671 6.88618 7.94033 7.28116C8.14252 7.47434 8.28603 7.66794 8.37978 7.81533C8.42667 7.8891 8.46292 7.95319 8.48818 8.00186C8.50072 8.02606 8.51073 8.04797 8.51845 8.06435C8.52217 8.07226 8.52557 8.07996 8.52822 8.08584L8.53408 8.09756V8.09853C8.53334 8.09932 8.51046 8.11058 7.9169 8.36611L8.53505 8.10049C8.69838 8.48078 8.52268 8.92211 8.14248 9.08583C7.78614 9.23899 7.37625 9.09416 7.19132 8.76259L7.15616 8.69228C7.14889 8.6783 7.13489 8.65261 7.11417 8.62001C7.07126 8.55257 7.00165 8.45924 6.90421 8.36611C6.71761 8.18792 6.41882 7.99997 5.9384 7.9999C5.1442 8.00019 4.5003 8.64417 4.49995 9.43836V10.5546C4.50013 11.3552 5.14949 12.0047 5.95012 12.0047H6.3466C6.76037 12.0044 7.0963 11.6685 7.09659 11.2547V10.9637H6.48039C6.06654 10.9634 5.73056 10.6276 5.7304 10.2137C5.73077 9.80004 6.06667 9.46405 6.48039 9.46375H7.34659C8.03645 9.46406 8.5962 10.0239 8.59657 10.7137V11.2547C8.59628 12.4969 7.58879 13.5044 6.3466 13.5047H5.95012C4.32107 13.5047 3.00015 12.1836 2.99996 10.5546V9.43836C3.00032 7.81576 4.31579 6.50021 5.9384 6.49992ZM10.4335 6.49992C10.8475 6.50005 11.1833 6.8359 11.1835 7.24991V12.7547C11.1832 13.1686 10.8474 13.5046 10.4335 13.5047C10.0195 13.5047 9.68377 13.1686 9.68348 12.7547V7.24991C9.68361 6.83586 10.0194 6.49999 10.4335 6.49992ZM16.2518 6.49992C16.6658 6.49999 17.0016 6.83586 17.0017 7.24991C17.0016 7.66394 16.6658 7.99984 16.2518 7.9999H13.9862V9.25184H15.7889C16.2028 9.25191 16.5385 9.58795 16.5389 10.0018C16.5387 10.4159 16.2029 10.7518 15.7889 10.7518H13.9862V12.7547C13.9859 13.1686 13.6501 13.5047 13.2362 13.5047C12.8222 13.5047 12.4865 13.1686 12.4862 12.7547V7.74991C12.4863 7.05971 13.046 6.49999 13.7362 6.49992H16.2518Z"
    fill="currentColor"
  />
</svg>

<svg xmlns="http://www.w3.org/2000/svg" width="20" height="20" fill="none" data-fui-icon="true" viewBox="0 0 20 20"><path fill="currentColor" d="M10 0c1.582 0 2.813 0 3.8.078.995.08 1.807.243 2.54.607a6.6 6.6 0 0 1 2.975 2.975c.363.733.527 1.545.607 2.54C20 7.187 20 8.418 20 10s0 2.813-.078 3.8c-.08.995-.244 1.807-.607 2.54a6.6 6.6 0 0 1-2.975 2.975c-.733.363-1.545.527-2.54.607C12.813 20 11.582 20 10 20s-2.813 0-3.8-.078c-.995-.08-1.807-.244-2.54-.607A6.6 6.6 0 0 1 .685 16.34C.32 15.607.158 14.795.078 13.8 0 12.813 0 11.582 0 10s0-2.813.078-3.8c.08-.995.243-1.807.607-2.54A6.6 6.6 0 0 1 3.66.685C4.393.32 5.205.158 6.2.078 7.187 0 8.418 0 10 0m0 1.5c-1.606 0-2.767 0-3.68.073-.905.072-1.503.212-1.994.455a5.1 5.1 0 0 0-2.298 2.298c-.243.49-.383 1.089-.455 1.993C1.5 7.233 1.5 8.394 1.5 10c0 1.607 0 2.768.073 3.682.072.904.212 1.502.455 1.993a5.1 5.1 0 0 0 2.298 2.297c.49.244 1.089.383 1.993.456.914.072 2.075.073 3.68.073 1.607 0 2.768 0 3.682-.073.904-.073 1.502-.212 1.993-.456a5.1 5.1 0 0 0 2.297-2.297c.244-.491.383-1.089.456-1.993.072-.914.073-2.075.073-3.681s0-2.767-.073-3.68c-.073-.905-.212-1.503-.456-1.994a5.1 5.1 0 0 0-2.297-2.298c-.491-.243-1.089-.383-1.993-.455C12.767 1.5 11.606 1.5 10 1.5m-4.062 5c.933 0 1.589.386 2.002.781a2.9 2.9 0 0 1 .548.72l.03.063.01.022.006.012c0 .001-.024.013-.617.268l.618-.266a.75.75 0 0 1-1.344.663l-.035-.07-.042-.073a1.4 1.4 0 0 0-.21-.254C6.718 8.188 6.42 8 5.938 8A1.44 1.44 0 0 0 4.5 9.438v1.117c0 .8.65 1.45 1.45 1.45h.397a.75.75 0 0 0 .75-.75v-.291H6.48a.75.75 0 0 1 0-1.5h.867c.69 0 1.25.56 1.25 1.25v.54a2.25 2.25 0 0 1-2.25 2.25H5.95A2.95 2.95 0 0 1 3 10.555V9.439A2.94 2.94 0 0 1 5.938 6.5m4.496 0a.75.75 0 0 1 .75.75v5.505a.75.75 0 0 1-1.5 0V7.25a.75.75 0 0 1 .75-.75m5.818 0a.75.75 0 0 1 0 1.5h-2.266v1.252h1.803a.75.75 0 0 1 0 1.5h-1.803v2.003a.75.75 0 0 1-1.5 0V7.75c0-.69.56-1.25 1.25-1.25z"/></svg>
